X:10
T:Polska från Västergötland
T:Svenska Folkdansar H1 nr 10
O:Västergötland
B:Traditioner av Svenska Folkdansar Häfte 1, nr 10
B:Jämför SMUS - katalog M36 bild 4 nr 3 ur [[Notböcker/220 Svenska Folkdanser]]
R:Polska
Z:Nils L
M:3/4
L:1/8
K:Am
c>B A>^G A>B | c>e (d^d) e2 | c>B A>^G A>B | (B4 c2) ::
K:C
e>c c>e g>e | (edcd) e2 | e>c c>e g>e | (ed cd) e2 |
c>B A>G c2 | c>B A>G c2 | c>B A>G (AB) | (B4 c2) :|

